X:2
T:Planxty Fanny Powers Harmony
C:Robin Beech
Z:robin.beech@mcgill.ca
R:planxty
M:3/4
L:1/4
K:G
D | B,2 D | B,2 D |E3- | EFG |AGF | GAE |D3- | D2A |
B2 G |c2 A |B2 G |E2 G |FGA |AGF |GDB, | G,2 ::
D | B,2 D | B,2 D |B3- |BAG |E2 G |E2 G |c3-|c BA |
BAG |FED |CB,A, |B,CD |EFG |AGF |GDB, |G,2  :|
